svg/terraform.svg

<?xml version="1.0" encoding="UTF-8"?>
<svg xmlns="http://www.w3.org/2000/svg" xmlns:xlink="http://www.w3.org/1999/xlink" width="27.789" height="32" viewBox="0 0 27.789 32">
<path fill-rule="nonzero" fill="rgb(25.098041%, 25.098041%, 69.803923%)" fill-opacity="1" d="M 18.578125 19.894531 L 26.949219 15.066406 L 26.949219 5.394531 L 18.578125 10.234375 "/>
<path fill-rule="nonzero" fill="rgb(36.078432%, 30.588236%, 89.803922%)" fill-opacity="1" d="M 9.289062 5.394531 L 17.660156 10.234375 L 17.660156 19.894531 L 9.289062 15.0625 M 0 9.667969 L 8.371094 14.5 L 8.371094 4.832031 L 0 0 M 9.289062 25.789062 L 17.660156 30.621094 L 17.660156 20.957031 L 9.289062 16.121094 "/>
</svg>

<svg role="img" viewBox="0 0 27.789 32" xmlns="http://www.w3.org/2000/svg"><path d="m18.578 19.895 8.371-4.829V5.395l-8.37 4.84" fill="rgb(25.098041%, 25.098041%, 69.803923%)"/><path d="m9.29 5.395 8.37 4.84v9.66l-8.37-4.832M0 9.668 8.371 14.5V4.832L0 0m9.29 25.79 8.37 4.831v-9.664l-8.37-4.836" fill="rgb(36.078432%, 30.588236%, 89.803922%)"/></svg>
